X:33
T:I Lost My Love
A:Cape Breton
S:Sandy MacIntyre
R:Jig
M:6/8
L:1/8
K:Am
uE|ABA AGE | c3 uc2 ud | ege edB | g3 ue2ua|
gec cge | dBG GAB | vc2 (uA B) GE | A3 A2 :|
ug | aba age | gag geg | aba age | g3 ue2 ua |
gec cge | dBG Ged | c2 (uA B)GE | A3 A2 :|
